X: 35933
T: Santa Maria
R: reel
M: 4/4
K: Dmixolydian
|:~A3 G ADDG|Adde c2BG|~A3 G ADDF|G2GF D4:|
|:Adde c2BG|FGAc B2AG|Aded c2BF|G2GF D4:|

